/* XPM */
/* This file can be converted to EPS by the GROMACS program xpm2ps */
/* title:   "RMS Deviation / Cluster Index" */
/* legend:  "RMSD (nm)" */
/* x-label: "Time (ps)" */
/* y-label: "Time (ps)" */
/* type:    "Continuous" */
static char *gromacs_xpm[] = {
"11 11   40 1",
"A  c #FFFFFF " /* "0" */,
"B  c #F8F8F8 " /* "0.00521" */,
"C  c #F2F2F2 " /* "0.0104" */,
"D  c #EBEBEB " /* "0.0156" */,
"E  c #E5E5E5 " /* "0.0208" */,
"F  c #DEDEDE " /* "0.0261" */,
"G  c #D8D8D8 " /* "0.0313" */,
"H  c #D1D1D1 " /* "0.0365" */,
"I  c #CBCBCB " /* "0.0417" */,
"J  c #C4C4C4 " /* "0.0469" */,
"K  c #BEBEBE " /* "0.0521" */,
"L  c #B7B7B7 " /* "0.0573" */,
"M  c #B1B1B1 " /* "0.0625" */,
"N  c #AAAAAA " /* "0.0677" */,
"O  c #A3A3A3 " /* "0.0729" */,
"P  c #9D9D9D " /* "0.0782" */,
"Q  c #969696 " /* "0.0834" */,
"R  c #909090 " /* "0.0886" */,
"S  c #898989 " /* "0.0938" */,
"T  c #838383 " /* "0.099" */,
"U  c #7C7C7C " /* "0.104" */,
"V  c #767676 " /* "0.109" */,
"W  c #6F6F6F " /* "0.115" */,
"X  c #696969 " /* "0.12" */,
"Y  c #626262 " /* "0.125" */,
"Z  c #5C5C5C " /* "0.13" */,
"a  c #555555 " /* "0.135" */,
"b  c #4E4E4E " /* "0.141" */,
"c  c #484848 " /* "0.146" */,
"d  c #414141 " /* "0.151" */,
"e  c #3B3B3B " /* "0.156" */,
"f  c #343434 " /* "0.162" */,
"g  c #2E2E2E " /* "0.167" */,
"h  c #272727 " /* "0.172" */,
"i  c #212121 " /* "0.177" */,
"j  c #1A1A1A " /* "0.182" */,
"k  c #141414 " /* "0.188" */,
"l  c #0D0D0D " /* "0.193" */,
"m  c #070707 " /* "0.198" */,
"n  c #000000 " /* "0.203" */,
/* x-axis:  0 10 20 30 40 50 60 70 80 90 100 */
/* y-axis:  0 10 20 30 40 50 60 70 80 90 100 */
"haZTbWWVdbA",
"ihbcWWaTTAn",
"njbeabeTAnn",
"gaTUURSAnnn",
"YTTUVRAnnnn",
"bYVTVAnnnnn",
"fdVWAnnnnnn",
"eXUAnnnnnnn",
"eVAnnnnnnnn",
"UAnnnnnnnnn",
"Annnnnnnnnn"
